icons/copilot-48.svg

<svg width="48" height="48" viewBox="0 0 48 48" fill="none" xmlns="http://www.w3.org/2000/svg">
<g clip-path="url(#clip0_71_2345)">
<path d="M21 29.5C21 28.6716 20.3284 28 19.5 28C18.6716 28 18 28.6716 18 29.5V33.5C18 34.3284 18.6716 35 19.5 35C20.3284 35 21 34.3284 21 33.5V29.5Z" fill="black"/>
<path d="M30 29.5C30 28.6716 29.3284 28 28.5 28C27.6716 28 27 28.6716 27 29.5V33.5C27 34.3284 27.6716 35 28.5 35C29.3284 35 30 34.3284 30 33.5V29.5Z" fill="black"/>
<path fill-rule="evenodd" clip-rule="evenodd" d="M34.8947 8.93894C36.7855 9.54143 38.2727 10.4108 39.3052 11.6697C40.7016 13.3722 41.0407 15.5062 40.8559 17.8585C40.861 17.8692 40.8659 17.8799 40.8707 17.8908L42.5554 21.6814L43.5186 21.874C44.3906 22.0484 45.1635 22.5481 45.6803 23.2717L47.3481 25.6066C47.7721 26.2002 48 26.9115 48 27.6409L48 32.5C48 33.558 47.3811 34.4733 46.8711 35.0853C46.3102 35.7584 45.5977 36.3928 44.937 36.9213C44.2677 37.4568 43.6049 37.9204 43.1133 38.2481C42.8663 38.4128 42.6596 38.5451 42.5131 38.6371C42.4398 38.6832 42.3814 38.7193 42.3404 38.7445L42.2922 38.7739L42.291 38.7746L42.2791 38.7821L42.2579 38.7955L42.2002 38.8315C42.1329 38.8731 42.0364 38.932 41.9121 39.0056C41.6634 39.1528 41.3031 39.3592 40.8426 39.6048C39.9222 40.0957 38.5972 40.7456 36.9586 41.3946C33.6906 42.6889 29.1226 44 24 44C18.8774 44 14.3094 42.6889 11.0414 41.3946C9.40274 40.7456 8.07781 40.0957 7.15739 39.6048C6.69685 39.3592 6.3366 39.1528 6.08794 39.0056C5.96358 38.932 5.86705 38.8731 5.79974 38.8315C5.76609 38.8106 5.73973 38.7941 5.72085 38.7821L5.70896 38.7746L5.70783 38.7739L5.6596 38.7445C5.61859 38.7193 5.56019 38.6832 5.48689 38.6371C5.34042 38.5451 5.13371 38.4128 4.88669 38.2481C4.39513 37.9204 3.73234 37.4568 3.06295 36.9213C2.40234 36.3928 1.68982 35.7584 1.12891 35.0853C0.618891 34.4733 -1.18015e-05 33.558 -5.72183e-06 32.5L-1.52588e-05 27.6409C-1.85964e-05 26.9115 0.227914 26.2002 0.651922 25.6066L2.3197 23.2717C2.83654 22.5481 3.60941 22.0484 4.48135 21.874L5.44457 21.6814L7.12928 17.8908C7.1341 17.8799 7.13904 17.8692 7.14409 17.8585C6.95934 15.5062 7.29839 13.3722 8.69477 11.6697C9.72727 10.4108 11.2145 9.54143 13.1053 8.93894C15.8393 6.82113 19.7093 5.5 24 5.5C28.2907 5.5 32.1607 6.82113 34.8947 8.93894ZM37.8076 18.2243C37.5989 20.0988 37.187 21.1797 36.525 21.8101C36.3562 21.9709 36.1489 22.1223 35.8889 22.2553C35.109 22.6541 33.8551 22.8863 31.7444 22.7016C31.6108 22.69 31.4811 22.6759 31.3551 22.6595C29.466 22.4141 28.4257 21.6542 27.7874 20.7113C27.7789 20.6989 27.7706 20.6864 27.7623 20.6738C27.704 20.586 27.6483 20.4952 27.595 20.4015C26.988 19.3346 26.6976 17.8976 26.6274 16.1605C26.5318 13.7934 26.9772 12.4957 27.6483 11.851C28.2712 11.2525 29.5248 10.8173 32.1542 11.3368C34.8221 11.8639 36.2363 12.6585 36.9856 13.5721C37.7073 14.4521 38.0326 15.7158 37.8549 17.746C37.8405 17.9109 37.8247 18.0703 37.8076 18.2243ZM23.643 20.4991C23.762 20.4997 23.881 20.5 24 20.5C24.119 20.5 24.238 20.4997 24.357 20.4991C24.5948 21.1654 24.9038 21.8034 25.3031 22.3931C26.5662 24.2589 28.5891 25.4371 31.4829 25.6902C34.5984 25.9628 36.9807 25.5187 38.5938 23.9827C39.032 23.5654 39.3853 23.0927 39.6713 22.5788L40 23.3183V36.6457C39.8372 36.7376 39.6469 36.8425 39.4308 36.9577C38.5934 37.4043 37.3715 38.0044 35.8539 38.6054C32.8094 39.8111 28.6274 41 24 41C19.3726 41 15.1906 39.8111 12.1461 38.6054C10.6285 38.0044 9.40655 37.4043 8.56916 36.9577C8.35305 36.8425 8.16282 36.7376 7.99999 36.6457V23.3183L8.32867 22.5788C8.61466 23.0927 8.96798 23.5654 9.40621 23.9827C11.0193 25.5187 13.4016 25.9628 16.5171 25.6902C19.4109 25.4371 21.4338 24.2589 22.6969 22.3931C23.0962 21.8034 23.4052 21.1654 23.643 20.4991ZM11.1287 21.4058C11.2355 21.5579 11.3509 21.6919 11.475 21.8101C12.1502 22.453 13.4414 22.9479 16.2556 22.7016C18.3935 22.5146 19.5318 21.7171 20.2126 20.7113C20.28 20.6118 20.3441 20.5085 20.405 20.4015C21.012 19.3346 21.3024 17.8976 21.3726 16.1605C21.4682 13.7934 21.0228 12.4957 20.3517 11.851C19.7288 11.2525 18.4752 10.8173 15.8458 11.3368C13.1779 11.8639 11.7637 12.6585 11.0144 13.5721C10.2926 14.4521 9.96742 15.7158 10.145 17.746C10.3022 19.5418 10.6188 20.6798 11.1287 21.4058ZM22.5 17C22.5 16.4477 22.9477 16 23.5 16H24.5C25.0523 16 25.5 16.4477 25.5 17C25.5 17.5523 25.0517 18 24.4994 18H23.5C22.9477 18 22.5 17.5523 22.5 17Z" fill="black"/>
</g>
<defs>
<clipPath id="clip0_71_2345">
<rect width="48" height="48" fill="white"/>
</clipPath>
</defs>
</svg>

<svg xmlns="http://www.w3.org/2000/svg" width="48" height="48" viewBox="0 0 48 48"><path d="M21 29.5a1.5 1.5 0 00-3 0v4a1.5 1.5 0 003 0v-4zm9 0a1.5 1.5 0 00-3 0v4a1.5 1.5 0 003 0v-4z"/><path fill-rule="evenodd" d="M34.895 8.939c1.89.602 3.378 1.472 4.41 2.73 1.397 1.703 1.736 3.837 1.55 6.19l.016.032 1.684 3.79.964.193a3.5 3.5 0 012.161 1.398l1.668 2.335A3.5 3.5 0 0148 27.64v4.86c0 1.058-.619 1.973-1.129 2.585-.56.673-1.273 1.308-1.934 1.836a26.506 26.506 0 01-2.597 1.824l-.048.029h-.001l-.012.008-.021.014-.058.035a27.766 27.766 0 01-1.358.773 37.77 37.77 0 01-3.883 1.79C33.69 42.69 29.123 44 24 44c-5.123 0-9.69-1.311-12.959-2.605a38.242 38.242 0 01-3.884-1.79 27.695 27.695 0 01-1.357-.773 9.58 9.58 0 01-.08-.05l-.011-.007-.001-.001-.048-.03c-.041-.025-.1-.06-.173-.107a26.538 26.538 0 01-2.424-1.716c-.66-.528-1.373-1.163-1.934-1.836C.619 34.473 0 33.558 0 32.5v-4.86c0-.729.228-1.44.652-2.033l1.668-2.335a3.5 3.5 0 012.161-1.398l.964-.193 1.684-3.79.015-.032c-.185-2.353.154-4.487 1.55-6.19 1.033-1.258 2.52-2.128 4.411-2.73C15.84 6.82 19.71 5.5 24 5.5c4.29 0 8.16 1.321 10.895 3.439zm2.913 9.285c-.21 1.875-.621 2.956-1.283 3.586-.169.16-.376.312-.636.445-.78.4-2.034.631-4.145.447a9.143 9.143 0 01-.389-.043c-1.889-.245-2.93-1.005-3.568-1.948a4.634 4.634 0 01-.192-.31c-.607-1.066-.897-2.503-.968-4.24-.095-2.368.35-3.665 1.021-4.31.623-.599 1.877-1.034 4.506-.514 2.668.527 4.082 1.322 4.832 2.235.721.88 1.047 2.144.869 4.174-.014.165-.03.324-.047.478zM23.643 20.5a70.806 70.806 0 00.714 0c.238.666.547 1.304.946 1.894 1.263 1.866 3.286 3.044 6.18 3.297 3.115.273 5.498-.171 7.11-1.707.439-.418.792-.89 1.078-1.404l.329.74v13.327c-.163.092-.353.197-.57.312a35.236 35.236 0 01-3.576 1.647C32.809 39.811 28.627 41 24 41c-4.627 0-8.81-1.189-11.854-2.395a35.236 35.236 0 01-3.577-1.647c-.216-.115-.406-.22-.569-.312V23.318l.329-.74c.286.515.639.987 1.077 1.405 1.613 1.536 3.996 1.98 7.111 1.707 2.894-.253 4.917-1.431 6.18-3.297.4-.59.708-1.228.946-1.894zm-12.514.907c.107.152.222.286.346.404.675.643 1.966 1.138 4.78.892 2.139-.187 3.277-.985 3.958-1.99.067-.1.131-.203.192-.31.607-1.067.897-2.504.968-4.242.095-2.367-.35-3.664-1.021-4.309-.623-.599-1.877-1.034-4.506-.514-2.668.527-4.082 1.322-4.832 2.235-.721.88-1.047 2.144-.869 4.174.157 1.796.474 2.934.984 3.66zM22.5 17a1 1 0 011-1h1a1 1 0 110 2h-1a1 1 0 01-1-1z"/></svg>
